X: 35662
T: Sailor's Bonnet, The
R: reel
M: 4/4
K: Dmajor
|:A2 FA dfef|dfef dB B2|A2FA dfec|dBAF AD D2:|
|:faab afdf|afef dB B2|fb b3 bafa|b2 af fe e2|
bf ~f3 afef|afef dB B3|A2 FA dfec|dBAF AD D2:|

